!!!COM: Haydn, Franz Joseph
!!!OPR: String Quartet in G Minor
!!!ONM: Opus 20, No. 3
!!!OTL: Affettuoso 
!!!OMV: 3
!!!SCT: H III:33
!!!SCA: Thematisch-bibliographisches Werkevererzeichnis (A. van Hoboken)
!!!YOR: Pleyel Edition, volume 3
!!!EED: Frances Bennion
!!!ENC: Frances Bennion
!!!CDT: 1732/3/31/-1809/5/31/
!!!OCY: Österreich
!!!YEC: Copyright (c) 1994, 2000 Center for Computer Assisted Research in the Humanities
!!!YEM: Rights to all derivative editions reserved.
!!!YEM: Refer to licensing agreement for further details.
!!!YEN: United States of America
**kern	**kern	**kern	**kern
*k[f#]	*k[f#]	*k[f#]	*k[f#]
*G:	*G:	*G:	*G:
*clefF	*clefF	*clefC3	*clefF4
*M3/4	*M3/4	*M3/4	*M3/4
*tb48	*tb48	*tb48	*tb48
=1	=1	=1	=1
4g	2B	[2.d	2G
4b	.	.	.
4dd	4b	.	4G
=2	=2	=2	=2
8dd	2a	2.d]	2F#
8cc	.	.	.
8a	.	.	.
8cc	.	.	.
4b	4b	.	4G
=3	=3	=3	=3
4ee	4g	4r	2c
4ff#	4a	4..dd	.
8.gg	4g	.	4B
16b	.	16g	.
=4	=4	=4	=4
4cc	4d	4a	4F#
4b	4d	4g	4G
4r	4r	4r	4r
=5	=5	=5	=5
4a	2e	4e	4c
4cc	.	4c	4A
4ee	4b	8.B	4G
.	.	16c	.
=6	=6	=6	=6
4dd	4a	4d	4F#
4cc	4f#	4a	4D
8b	8g	[4g	8E
8gg	8dd	.	8BB
=7	=7	=7	=7
8ee	8cc	4g]	4C
16dd	16b	.	.
16cc	16a	.	.
4b	4g	4d	4D
16dd	16b	4d	4D
16cc	16a	.	.
16b	16g	.	.
16a	16f#	.	.
=8	=8	=8	=8
4a	4f#	4d	4.G
8b	8g	2r	.
4.r	4.r	.	8G
.	.	.	8D
.	.	.	8BB
=9	=9	=9	=9
4G	[2.d	2.B	2GG
4B	.	.	.
4d	.	.	4GG
=10	=10	=10	=10
8d	2.d]	2A	2FF#
8c	.	.	.
8A	.	.	.
8c	.	.	.
4B	.	4B	4GG
=11	=11	=11	=11
4e	4r	4G	2C
4f#	4..d	4A	.
16.g	.	4G	4BB
32a	.	.	.
16.b	.	.	.
.	16G	.	.
32B	.	.	.
=12	=12	=12	=12
4c	4A	4D	4FF#
4B	4G	4D	4GG
4r	4r	4r	4r
=13	=13	=13	=13
2.bb	2.gg	[2.dd	16r
.	.	.	16F#
.	.	.	16G
.	.	.	16D
.	.	.	16C
.	.	.	16BB
.	.	.	16AA
.	.	.	16GG
.	.	.	16FF#
.	.	.	16GG
.	.	.	16AA
.	.	.	16GG
=14	=14	=14	=14
2.aa	2.ff#	2.dd]	16r
.	.	.	16c#
.	.	.	16d
.	.	.	16A
.	.	.	16G
.	.	.	16F#
.	.	.	16E
.	.	.	16D
.	.	.	16C#
.	.	.	16D
.	.	.	16E
.	.	.	16D
=15	=15	=15	=15
2.gg	2.ee	2.a	16r
.	.	.	16G#
.	.	.	16A
.	.	.	16E
.	.	.	16D
.	.	.	16C#
.	.	.	16BB
.	.	.	16AA
.	.	.	16GG#
.	.	.	16AA
.	.	.	16BB
.	.	.	16AA
=16	=16	=16	=16
2.ff#	2.dd	2.a	16r
.	.	.	16c#
.	.	.	16d
.	.	.	16A
.	.	.	16G
.	.	.	16F#
.	.	.	16E
.	.	.	16D
.	.	.	16C#
.	.	.	16D
.	.	.	16E
.	.	.	16D
=17	=17	=17	=17
4ee	2.b	4g	16r
.	.	.	16F#
.	.	.	16G
.	.	.	16D#
4.gg	.	2b	16E
.	.	.	16EE
.	.	.	16GG
.	.	.	16BB
.	.	.	16E
.	.	.	16F#
8ee	.	.	16G
.	.	.	16G#
=18	=18	=18	=18
2cc#	2e	2a	16r
.	.	.	16G#
.	.	.	16A
.	.	.	16E
.	.	.	16D
.	.	.	16C#
.	.	.	16BB
.	.	.	16AA
4r	4r	4r	16GG#
.	.	.	16AA
.	.	.	16BB
.	.	.	16AA
=19	=19	=19	=19
4a	[2.a	4r	16A
.	.	.	16c#
.	.	.	16e
.	.	.	16c#
4gg	.	4C#	16e
.	.	.	16c#
.	.	.	16e
.	.	.	16c#
4ff#	.	4D	16A
.	.	.	16d
.	.	.	16f#
.	.	.	16d
=20	=20	=20	=20
4a	2.a]	4r	16A
.	.	.	16e
.	.	.	16g
.	.	.	16e
4ccc#	.	4A	16g
.	.	.	16e
.	.	.	16g
.	.	.	16e
4ddd	.	4d	16A
.	.	.	16d
.	.	.	16f#
.	.	.	16d
=21	=21	=21	=21
4a	[2.a	4r	16A
.	.	.	16c#
.	.	.	16e
.	.	.	16c#
4gg	.	4C#	16e
.	.	.	16c#
.	.	.	16e
.	.	.	16c#
4ff#	.	4D	16A
.	.	.	16d
.	.	.	16f#
.	.	.	16d
=22	=22	=22	=22
4a	2.a]	4r	16A
.	.	.	16e
.	.	.	16g
.	.	.	16e
4ccc#	.	4A	16g
.	.	.	16e
.	.	.	16g
.	.	.	16e
4ddd	.	4d	16A
.	.	.	16d
.	.	.	16f#
.	.	.	16d
=23	=23	=23	=23
16r	8.b	4G	4G
16aa#	.	.	.
16bb	.	.	.
16ff#	16dd#	.	.
16gg	4ee	2r	2r
16dd#	.	.	.
16ee	.	.	.
16b	.	.	.
16a	4r	.	.
16g	.	.	.
16f#	.	.	.
16e	.	.	.
=24	=24	=24	=24
16r	8.a	4F#	4F#
16gg#	.	.	.
16aa	.	.	.
16ee	16cc#	.	.
16ff#	4dd	2r	2r
16cc#	.	.	.
16dd	.	.	.
16ccc#	.	.	.
8ddd	4r	.	.
8r	.	.	.
=25	=25	=25	=25
16r	2r	2r	4G
16A#	.	.	.
16B	.	.	.
16gg	.	.	.
4a	.	.	4A
8.ee	4cc#	4g	4AA
32dd	.	.	.
32ee	.	.	.
=26	=26	=26	=26
2ddd	16dd	2f#	2.BB
.	16ee	.	.
.	16ff#	.	.
.	16cc#	.	.
.	16dd	.	.
.	16a#	.	.
.	16b	.	.
.	16f#	.	.
16ccc#	16g#	4e	.
16bb	16b	.	.
16aa	16cc#	.	.
16gg#	16dd	.	.
=27	=27	=27	=27
4gg#	4dd	[4e	[4AA
24aa	8cc#	8e]	8AA]
24bb	.	.	.
24gg#	.	.	.
24aa	4.r	4.r	4.r
24bb	.	.	.
24gg#	.	.	.
24aa	.	.	.
24bb	.	.	.
24gg#	.	.	.
24aa	.	.	.
24bb	.	.	.
24gg#	.	.	.
=28	=28	=28	=28
4.aa	2.r	2.r	2.r
8aa	.	.	.
8ccc#	.	.	.
8eee	.	.	.
=29	=29	=29	=29
[4ggg	4r	4r	4r
16ggg]	2ee	[2a	2c#
16fff#	.	.	.
16eee	.	.	.
16ddd	.	.	.
16ccc#	.	.	.
16bb	.	.	.
16aa	.	.	.
16gg	.	.	.
=30	=30	=30	=30
2.ff#	2.dd	2.a]	16r
.	.	.	16c#
.	.	.	16d
.	.	.	16A
.	.	.	16G
.	.	.	16F#
.	.	.	16E
.	.	.	16D
.	.	.	16C#
.	.	.	16D
.	.	.	16E
.	.	.	16D
=31	=31	=31	=31
2.ddd	2.ff#	2b	16r
.	.	.	16A#
.	.	.	16B
.	.	.	16F#
.	.	.	16E
.	.	.	16D
.	.	.	16C#
.	.	.	16BB
.	.	4b	16AA#
.	.	.	16BB
.	.	.	16C#
.	.	.	16BB
=32	=32	=32	=32
2.bb	2.gg	2g	16r
.	.	.	16G
.	.	.	16A
.	.	.	16B
.	.	.	16c#
.	.	.	16d
.	.	.	16e
.	.	.	16f#
.	.	4ee	16g
.	.	.	16f#
.	.	.	16e
.	.	.	16d
=33	=33	=33	=33
[2aa	16gg	16ee	2c#
.	16ff#	16dd	.
.	16ee	16cc#	.
.	16dd	16b	.
.	16cc#	16a	.
.	16b	16g	.
.	16a	16f#	.
.	16g	16e	.
16aa]	8f#	8d	4d
16ccc#	.	.	.
16ddd	8ff#	8dd	.
16bb	.	.	.
=34	=34	=34	=34
[2aa	16gg	16ee	2c#
.	16ff#	16dd	.
.	16ee	16cc#	.
.	16dd	16b	.
.	16cc#	16a	.
.	16b	16g	.
.	16a	16f#	.
.	16g	16e	.
24aa]	8f#	8d	4d
24bb	.	.	.
24ccc#	.	.	.
24ddd	8ff#	8dd	.
24ccc#	.	.	.
24bb	.	.	.
=35	=35	=35	=35
2aa	2gg	2ee	16c#
.	.	.	16d
.	.	.	16e
.	.	.	16f#
.	.	.	16g
.	.	.	16a
.	.	.	16b
.	.	.	16cc#
16aa	8ff#	8dd	8dd
16dd	.	.	.
16ddd	8dd	8f#	8dd
16aa	.	.	.
=36	=36	=36	=36
16bb	4g	4g	[2.dd
16dd	.	.	.
16ddd	.	.	.
16bb	.	.	.
16aa	2r	4f#	.
16ff#	.	.	.
16ee	.	.	.
16dd	.	.	.
16cc#	.	8r	.
16dd	.	.	.
16ddd	.	8f#	.
16aa	.	.	.
=37	=37	=37	=37
16bb	2r	4g	2dd]
16dd	.	.	.
16ddd	.	.	.
16bb	.	.	.
16aa	.	4f#	.
16ff#	.	.	.
16ee	.	.	.
16dd	.	.	.
16cc#	8r	8r	8r
16dd	.	.	.
16aa	8f#	8f#	8F#
16a	.	.	.
=38	=38	=38	=38
16a#	4g	4g	4G
16b	.	.	.
16cc	.	.	.
16cc#	.	.	.
16dd	2r	2r	2r
16ee	.	.	.
16ff	.	.	.
16ff#	.	.	.
16gg	.	.	.
16gg#	.	.	.
16aa	.	.	.
16aa#	.	.	.
=39	=39	=39	=39
4bb	2.r	2.r	2.r
4r	.	.	.
8.G 8.b	.	.	.
16G 16b	.	.	.
=40	=40	=40	=40
4G 4b	2r	2r	2r
4r	.	.	.
24G	8.c#	4G	4AA
24c#	.	.	.
24e	.	.	.
24g	.	.	.
24e	.	.	.
.	16e	.	.
24c#	.	.	.
=41	=41	=41	=41
16d	4d	4F#	4D
16d	.	.	.
16d	.	.	.
16d	.	.	.
16f#	4r	4r	4r
16d	.	.	.
16d	.	.	.
16d	.	.	.
24G	8.c#	4G	4AA
24c#	.	.	.
24e	.	.	.
24g	.	.	.
24e	.	.	.
.	16e	.	.
24c#	.	.	.
=42	=42	=42	=42
16d	4d	4F#	4D
16d	.	.	.
16d	.	.	.
16d	.	.	.
16f#	4r	4r	4r
16d	.	.	.
16d	.	.	.
16d	.	.	.
24G	8.c#	4G	4AA
24c#	.	.	.
24e	.	.	.
24g	.	.	.
24e	.	.	.
.	16e	.	.
24c#	.	.	.
=43	=43	=43	=43
4c#	4e	4G	2DD
4d	4d	4F#	.
4r	4r	4r	4r
=44	=44	=44	=44
2.r	4r	4d	2D
.	4A	4f#	.
.	4f#	4a	4D
=45	=45	=45	=45
2.r	2e 2A	8a	2C#
.	.	8g	.
.	.	8e	.
.	.	8g	.
.	4f#	4f#	4D
=46	=46	=46	=46
2.r	4d	4b	2G
.	4e	4cc#	.
.	4A	16.dd	4F#
.	.	32ee	.
.	.	16.ff#	.
.	.	32f#	.
=47	=47	=47	=47
2.r	4A	4g	4C#
.	4A	4f#	4D
.	4r	4r	4r
=48	=48	=48	=48
2.dd	2.f	[2.a	16r
.	.	.	16c#
.	.	.	16d
.	.	.	16A
.	.	.	16G
.	.	.	16F
.	.	.	16E
.	.	.	16D
.	.	.	16C#
.	.	.	16D
.	.	.	16E
.	.	.	16D
=49	=49	=49	=49
2.ff	[2.dd	2.a]	16r
.	.	.	16c#
.	.	.	16d
.	.	.	16e
.	.	.	16f
.	.	.	16g
.	.	.	16f
.	.	.	16e
.	.	.	16d
.	.	.	16c
.	.	.	16B
.	.	.	16A
=50	=50	=50	=50
4ee	4dd]	4b 4e	4G#
2r	2r	2r	2r
=51	=51	=51	=51
2.r	2c	2A	4A
.	.	.	4c
.	4c	4A	4e
=52	=52	=52	=52
2.r	2B	2G#	8e
.	.	.	8d
.	.	.	8B
.	.	.	8d
.	4c	4A	4c
=53	=53	=53	=53
2.r	4A	4D	4f
.	4A	4C	4e
.	4r	4r	16d
.	.	.	16c
.	.	.	16B
.	.	.	16A
=54	=54	=54	=54
2.r	4G#	4E	8.B
.	.	.	32c
.	.	.	32d
.	4A	4A	4c
.	4r	4r	4r
=55	=55	=55	=55
16r	2.e	2.c	2.A
16gg#	.	.	.
16aa	.	.	.
16ee	.	.	.
16dd	.	.	.
16cc	.	.	.
16b	.	.	.
16a	.	.	.
16g#	.	.	.
16a	.	.	.
16b	.	.	.
16a	.	.	.
=56	=56	=56	=56
16r	2.e	2.c#	2.G
16gg#	.	.	.
16aa	.	.	.
16ee	.	.	.
16dd	.	.	.
16cc#	.	.	.
16b	.	.	.
16a	.	.	.
16g#	.	.	.
16a	.	.	.
16b	.	.	.
16a	.	.	.
=57	=57	=57	=57
16r	2.e	2.c#	2.F#
16aa#	.	.	.
16ccc#	.	.	.
16ee	.	.	.
16gg	.	.	.
16cc#	.	.	.
16ee	.	.	.
16a#	.	.	.
16cc#	.	.	.
16g	.	.	.
16f#	.	.	.
16e	.	.	.
=58	=58	=58	=58
16r	4d	2.d	2.B
16aa#	.	.	.
16bb	.	.	.
16ff#	.	.	.
16ee	2f#	.	.
16dd	.	.	.
16cc#	.	.	.
16b	.	.	.
16a#	.	.	.
16b	.	.	.
16cc#	.	.	.
16b	.	.	.
=59	=59	=59	=59
16r	2.f#	2.d#	2.A
16aa#	.	.	.
16bb	.	.	.
16ff#	.	.	.
16ee	.	.	.
16dd#	.	.	.
16cc#	.	.	.
16b	.	.	.
16a#	.	.	.
16b	.	.	.
16cc#	.	.	.
16b	.	.	.
=60	=60	=60	=60
16r	2.e	2.B	2.G
16aa#	.	.	.
16bb	.	.	.
16ff#	.	.	.
16gg	.	.	.
16dd#	.	.	.
16ee	.	.	.
16b	.	.	.
16a	.	.	.
16g	.	.	.
16f#	.	.	.
16e	.	.	.
=61	=61	=61	=61
16r	2.f	2.d	2.G#
16bb	.	.	.
16ddd	.	.	.
16bb	.	.	.
16aa	.	.	.
16gg#	.	.	.
16bb	.	.	.
16ff	.	.	.
16ee	.	.	.
16dd	.	.	.
16cc	.	.	.
16b	.	.	.
=62	=62	=62	=62
16r	2.e	2.c	2.A
16gg#	.	.	.
16aa	.	.	.
16ee	.	.	.
16dd	.	.	.
16cc	.	.	.
16b	.	.	.
16a	.	.	.
16g#	.	.	.
16a	.	.	.
16b	.	.	.
16a	.	.	.
=63	=63	=63	=63
16r	2.d#	2.A	2.F
16bb	.	.	.
16ccc	.	.	.
16gg#	.	.	.
16aa	.	.	.
16ee	.	.	.
16ff	.	.	.
16dd#	.	.	.
16ee	.	.	.
16cc	.	.	.
16b	.	.	.
16a	.	.	.
=64	=64	=64	=64
16g#	4e	4B	4E
16dd#	.	.	.
16ee	.	.	.
16b	.	.	.
16a	2r	2r	2r
16g#	.	.	.
16f#	.	.	.
16e	.	.	.
16d#	.	.	.
16e	.	.	.
16g#	.	.	.
16b	.	.	.
=65	=65	=65	=65
4ee	2.r	16r	16r
.	.	16E	16EE
.	.	16G#	16GG#
.	.	16B	16BB
2r	.	16e	16E
.	.	16d#	16D#
.	.	16e	16E
.	.	16f	16F
.	.	16g	16G
.	.	16f	16F
.	.	16e	16E
.	.	16d	16D
=66	=66	=66	=66
4cc	2.G 2.e	2c	2C
4ee	.	.	.
4gg	.	4c	4C
=67	=67	=67	=67
8gg	2d	2.g	2BB
8ff	.	.	.
8dd	.	.	.
8ff	.	.	.
4ee	4e	.	4C
=68	=68	=68	=68
4aa	4c	4f	2F
4bb	4d	4..g	.
16.ccc	4G	.	4E
32ddd	.	.	.
16.eee	.	.	.
.	.	16c	.
32ee	.	.	.
=69	=69	=69	=69
4ff	4G	4d	4BB
4ee	4G	4c	4C
4r	4r	4r	4r
=70	=70	=70	=70
2.r	16c	2.c	4c
.	16e	.	.
.	16g	.	.
.	16e	.	.
.	16g	.	4e
.	16e	.	.
.	16g	.	.
.	16e	.	.
.	16g	.	4g
.	16e	.	.
.	16g	.	.
.	16e	.	.
=71	=71	=71	=71
2.r	16B-	8B-	4.g
.	16d	.	.
.	16g	8B-	.
.	16d	.	.
.	16g	8B-	.
.	16d	.	.
.	16g	8B-	8f
.	16d	.	.
.	16g	8B-	8e
.	16d	.	.
.	16g	8B-	8d
.	16d	.	.
=72	=72	=72	=72
16r	16A	8A	4.c#
16cc#	16e	.	.
16ee	16g	8A	.
16dd	16e	.	.
16cc#	16g	8A	.
16b-	16e	.	.
16a	16g	8A	8e
16g	16e	.	.
16f	16g	8A	8f
16e	16e	.	.
16d	16g	8A	8g
16c#	16e	.	.
=73	=73	=73	=73
16r	16A	8D	8f
16ccc#	16d	.	.
16ddd	16f	8D	16e
16aa	16d	.	16d
16gg	16f	8D	4d
16ff	16d	.	.
16ee	16f	8D	.
16dd	16d	.	.
16cc#	16f	8D	4r
16dd	16d	.	.
16ee	16f	8D	.
16dd	16d	.	.
=74	=74	=74	=74
2.r	16A	8d	4d
.	16f	.	.
.	16a	8d	.
.	16f	.	.
.	16a	8d	4f
.	16f	.	.
.	16a	8d	.
.	16f	.	.
.	16a	8d	4a
.	16f	.	.
.	16a	8d	.
.	16f	.	.
=75	=75	=75	=75
2.r	16c	8c	4.a
.	16e	.	.
.	16a	8c	.
.	16e	.	.
.	16a	8c	.
.	16e	.	.
.	16a	8c	8g
.	16e	.	.
.	16a	8c	8f#
.	16e	.	.
.	16a	8c	8e
.	16e	.	.
=76	=76	=76	=76
16r	16B	8B	4d#
16dd#	16f#	.	.
16ff#	16a	8B	.
16ee	16f#	.	.
16dd#	16a	8B	4f#
16ccc	16f#	.	.
16bb	16a	8B	.
16aa	16f#	.	.
16gg	16a	8B	4a
16ff#	16f#	.	.
16ee	16a	8B	.
16dd#	16f#	.	.
=77	=77	=77	=77
16r	16B	8E	8g
16ddd#	16e	.	.
16eee	16g	8E	8g
16bb	16e	.	.
16aa	16g	8E	8g
16gg	16e	.	.
16ff#	16g	8E	8g
16ee	16e	.	.
16dd#	16g	8E	8g
16ee	16e	.	.
16ff#	16g	8E	8g
16ee	16e	.	.
=78	=78	=78	=78
16r	16G	8B	8g
16dd	16d	.	.
16ee	16f	8B	8f
16ff	16d	.	.
16gg	16f	8B	4f
16aa	16d	.	.
16bb	16f	8B	.
16ccc	16d	.	.
16ddd	16f	8B	4f
16eee	16d	.	.
16fff	16G	8B	.
16ddd	16f	.	.
=79	=79	=79	=79
16r	16G	8c	8f
16ddd	16c	.	.
16eee	16e	8C	8e
16bb	16c	.	.
16ccc	16e	8C	4e
16gg	16c	.	.
16ff	16e	8C	.
16ee	16c	.	.
16dd	16e	8C	4e
16cc	16c	.	.
16b	16e	8C	.
16cc	16c	.	.
=80	=80	=80	=80
16r	16B	8G#	8e
16b	16d	.	.
16cc	16e	8G#	8d
16dd	16d	.	.
16ee	16B	8G#	4d
16ff#	16d	.	.
16gg#	16e	8G#	.
16aa	16d	.	.
16bb	16B	8G#	4d
16ccc	16d	.	.
16ddd	16e	8G#	.
16bb	16d	.	.
=81	=81	=81	=81
16r	16A	8A	8d
16bb	16c	.	.
16ccc	16e	8A	8c
16gg#	16c	.	.
16aa	16A	8A	4c
16ee	16c	.	.
16dd	16e	8A	.
16cc	16c	.	.
16b	16A	8A	4e
16a	16c	.	.
16g#	16e	8A	.
16a	16c	.	.
=82	=82	=82	=82
16r	16A	8F#	8e
16a	16c	.	.
16b	16d	8F#	8d
16cc	16c	.	.
16dd	16A	8F#	4d
16ee	16c	.	.
16ff#	16d	8F#	.
16gg	16c	.	.
16aa	16A	8F#	4c
16bb	16c	.	.
16ccc	16d	8F#	.
16aa	16c	.	.
=83	=83	=83	=83
16r	16G	8G	8c
16aa	16B	.	.
16bb	16d	8G	8B
16ff#	16B	.	.
16gg	16G	8G	4B
16dd	16B	.	.
16cc	16d	8G	.
16b	16B	.	.
16a	16G	8E	4c#
16g	16c#	.	.
16f#	16e	8E	.
16g	16g	.	.
=84	=84	=84	=84
4f#	16d	4D	4d
.	16d	.	.
.	16d	.	.
.	16d	.	.
4.r	16f#	2r	2r
.	16d	.	.
.	16d	.	.
.	16d	.	.
.	16c	.	.
.	16d	.	.
8f#	16d	.	.
.	16d	.	.
=85	=85	=85	=85
8g	16B	2.r	2.r
.	16d	.	.
8a	16A	.	.
.	16d	.	.
8b	16G	.	.
.	16d	.	.
8cc	16A	.	.
.	16d	.	.
8dd	16B	.	.
.	16d	.	.
8b	16G	.	.
.	16d	.	.
=86	=86	=86	=86
4a	16d	4D	4DD
.	16d	.	.
.	16d	.	.
.	16d	.	.
4.r	16f#	2r	2r
.	16d	.	.
.	16d	.	.
.	16d	.	.
.	16c	.	.
.	16d	.	.
8f#	16d	.	.
.	16d	.	.
=87	=87	=87	=87
8g	16B	2.r	2.r
.	16d	.	.
8a	16A	.	.
.	16d	.	.
8b	16G	.	.
.	16d	.	.
8cc	16A	.	.
.	16d	.	.
8dd	16B	.	.
.	16d	.	.
8b	16G	.	.
.	16d	.	.
=88	=88	=88	=88
4a	16d	4D	4DD
.	16d	.	.
.	16d	.	.
.	16d	.	.
2r	16f#	2r	2r
.	16d	.	.
.	16d	.	.
.	16d	.	.
.	16d	.	.
.	16d	.	.
.	16d	.	.
.	16d	.	.
=89	=89	=89	=89
4d	16d	4r	16D
.	16d	.	16F#
.	16d	.	16A
.	16d	.	16F#
4cc	16d	4F#	16A
.	16d	.	16F#
.	16d	.	16A
.	16d	.	16F#
4b	16d	4G	16D
.	16d	.	16G
.	16d	.	16B
.	16d	.	16G
=90	=90	=90	=90
4d	16d	4r	16D
.	16d	.	16A
.	16d	.	16c
.	16d	.	16A
4ff#	16d	4D	16c
.	16d	.	16A
.	16d	.	16c
.	16d	.	16A
4gg	16d	4G	16D
.	16d	.	16G
.	16d	.	16B
.	16d	.	16G
=91	=91	=91	=91
4d	16d	4r	16D
.	16d	.	16F#
.	16d	.	16A
.	16d	.	16F#
4cc	16d	4F#	16A
.	16d	.	16F#
.	16d	.	16A
.	16d	.	16F#
4b	16d	4G	16D
.	16d	.	16G
.	16d	.	16B
.	16d	.	16G
=92	=92	=92	=92
4d	16d	4r	16D
.	16d	.	16A
.	16d	.	16c
.	16d	.	16A
4ff#	16d	4D	16c
.	16d	.	16A
.	16d	.	16c
.	16d	.	16A
4gg	16d	4G	16D
.	16d	.	16G
.	16d	.	16B
.	16d	.	16G
=93	=93	=93	=93
16r	8.e	4C	4c
16dd#	.	.	.
16ee	.	.	.
16b	16g#	.	.
16cc	4a	2r	2r
16g#	.	.	.
16a	.	.	.
16gg#	.	.	.
16aa	4r	.	.
16ee	.	.	.
16bb	.	.	.
16ccc	.	.	.
=94	=94	=94	=94
16r	8.d	4B	4B
16cc#	.	.	.
16dd	.	.	.
16a	16f#	.	.
16b	4g	2r	2r
16f#	.	.	.
16g	.	.	.
16ff#	.	.	.
16gg	4r	.	.
16cc#	.	.	.
16dd	.	.	.
16aa#	.	.	.
=95	=95	=95	=95
16bb	2r	2r	2r
16ff#	.	.	.
16gg	.	.	.
16ccc#	.	.	.
16ddd	.	.	.
16aa#	.	.	.
16bb	.	.	.
16ff#	.	.	.
16gg	8.r	8.r	8.r
16cc#	.	.	.
16dd	.	.	.
16gg	16dd	16g	16BB
=96	=96	=96	=96
8ee	8cc	4g	4C
16dd	16b	.	.
16cc	16a	.	.
4b	4g	4d	4D
4a	4f#	4d	4D
=97	=97	=97	=97
[2gg	16g	2B	2.E
.	16a	.	.
.	16b	.	.
.	16f#	.	.
.	16g	.	.
.	16d#	.	.
.	16e	.	.
.	16B	.	.
16gg]	16c#	4A	.
16ee	16e	.	.
16dd	16f#	.	.
16cc#	16g	.	.
=98	=98	=98	=98
4ee	4g	[4A	4D
16dd	8f#	8A]	8DD
16d	.	.	.
16f#	4.r	4.r	4.r
16a	.	.	.
16cc	.	.	.
16dd	.	.	.
16ff#	.	.	.
16aa	.	.	.
=99	=99	=99	=99
[4ccc	4r	4r	4r
16ccc]	2a	2d	2D
16bb	.	.	.
16aa	.	.	.
16gg	.	.	.
16ff#	.	.	.
16ee	.	.	.
16dd	.	.	.
16cc	.	.	.
=100	=100	=100	=100
2.b	2.g	2.d	16r
.	.	.	16F#
.	.	.	16G
.	.	.	16D
.	.	.	16C
.	.	.	16BB
.	.	.	16AA
.	.	.	16GG
.	.	.	16FF#
.	.	.	16GG
.	.	.	16AA
.	.	.	16GG
=101	=101	=101	=101
2.gg	2.b	2G	16r
.	.	.	16D#
.	.	.	16E
.	.	.	16BB
.	.	.	16AA
.	.	.	16GG
.	.	.	16FF#
.	.	.	16EE
.	.	4e	16DD#
.	.	.	16EE
.	.	.	16FF#
.	.	.	16EE
=102	=102	=102	=102
2.ee	2.cc	2c	16r
.	.	.	16C
.	.	.	16D
.	.	.	16E
.	.	.	16F#
.	.	.	16G
.	.	.	16A
.	.	.	16B
.	.	4a	16c
.	.	.	16B
.	.	.	16A
.	.	.	16G
=103	=103	=103	=103
[2dd	16cc	16a	2F#
.	16b	16g	.
.	16a	16f#	.
.	16g	16e	.
.	16f#	16d	.
.	16e	16c	.
.	16d	16B	.
.	16c	16A	.
16dd]	8B	8G	4G
16ff#	.	.	.
16gg	8b	8g	.
16ee	.	.	.
=104	=104	=104	=104
2dd	16cc	16a	2F#
.	16b	16g	.
.	16a	16f#	.
.	16g	16e	.
.	16f#	16d	.
.	16e	16c	.
.	16d	16B	.
.	16c	16A	.
24dd	8B	8G	4G
24ee	.	.	.
24ff#	.	.	.
24gg	8b	8g	.
24ff#	.	.	.
24ee	.	.	.
=105	=105	=105	=105
[2dd	2cc	2a	16F#
.	.	.	16G
.	.	.	16A
.	.	.	16B
.	.	.	16c
.	.	.	16d
.	.	.	16e
.	.	.	16f#
16dd]	8b	8g	8g
16g	.	.	.
16gg	8g	8B	8g
16dd	.	.	.
=106	=106	=106	=106
16ee	4G	4c	2.g
16g	.	.	.
16gg	.	.	.
16ee	.	.	.
16dd	2r	4B	.
16b	.	.	.
16a	.	.	.
16g	.	.	.
16f#	.	8r	.
16g	.	.	.
16gg	.	8B	.
16dd	.	.	.
=107	=107	=107	=107
16ee	2r	4c	2g
16g	.	.	.
16gg	.	.	.
16ee	.	.	.
16dd	.	4B	.
16b	.	.	.
16a	.	.	.
16g	.	.	.
16f#	8r	8r	8r
16g	.	.	.
16dd	8B	8B	8BB
16d	.	.	.
=108	=108	=108	=108
16d#	4c	4c	4C
16e	.	.	.
16f	.	.	.
16f#	.	.	.
16g	2r	2r	2r
16a	.	.	.
16b-	.	.	.
16b	.	.	.
16cc	.	.	.
16cc#	.	.	.
16dd	.	.	.
16dd#	.	.	.
=109	=109	=109	=109
4ee	2r	2.r	2.r
4r	.	.	.
8.ee	8.cc	.	.
16ee	16cc	.	.
=110	=110	=110	=110
4ee	4cc	2r	2r
4r	4r	.	.
8.A	8.f#	24C	4DD
.	.	24F#	.
.	.	24A	.
.	.	24c	.
.	.	24A	.
16c	16a	.	.
.	.	24F#	.
=111	=111	=111	=111
4B	4g	16G	4GG
.	.	16G	.
.	.	16G	.
.	.	16G	.
4r	4r	16B	4r
.	.	16G	.
.	.	16G	.
.	.	16G	.
8.A	8.f#	24C	4DD
.	.	24F#	.
.	.	24A	.
.	.	24c	.
.	.	24A	.
32B	32g	.	.
.	.	24F#	.
32c	32a	.	.
=112	=112	=112	=112
4B	4g	16G	4GG
.	.	16G	.
.	.	16G	.
.	.	16G	.
4r	4r	16B	4r
.	.	16G	.
.	.	16G	.
.	.	16G	.
8.A	8.cc	24C	4DD
.	.	24F#	.
.	.	24A	.
.	.	24c	.
.	.	24A	.
16c	16A	.	.
.	.	24F#	.
=113	=113	=113	=113
4c	4A	4F#	[4GG
8B	8G	8G	8GG]
4.r	4.r	4.r	4.r
==	==	==	==
*-	*-	*-	*-
!!!RWG1: This file contains only pitch and duration data.
!!!RWG2: Transposing instruments are not transposed.
!!!RWG3: Spines may have incompatible meters.
!!!RWG4: Durations of rests and tied notes may be interpreted.
!!!RWG: Key is interpreted using the Humdrum key tool.
!!!GTL: 6 Divertimentos ("Sun")
!!!AFT: stage1
!!!END: 1997/04/15
!!format changes:
!!content changes:
!!public access: complete
!!!KEY: 2049284769
!!!EMD: Converted from MuseData to Humdrum Dec 16, 2000, by Andreas Kornstaedt using muse2kern.
